X:1
T:Title
%%score { 1 | 2 }
L:1/8
Q:1/4=82
M:2/4
K:Bb
V:1 treble nm="Grand Piano"
V:2 bass 
V:1
 [DF][DF] [EG][DF] | [EG][FA] [GB]2 | [GB][EG] [DF][DB] | AB c2 | [Fd][Ec] [DB][DF] | GB F2 | %6
w: W.~H.~Doane * * *||||||
 [DF][DB] AB | dc [DB]2 | [Fd]2 [Fd][Ec] | [DB] .[DF]3 | G2 GB | [DB] .[DF]3 | [DF]2 [DF][DF] | %13
w: |||||||
[M:5/8] [EG] [GB]3 [FB] |[M:2/4] d2 dc | [DB]4 |] %16
w: |||
V:2
 [B,,B,][B,,B,] [B,,B,][B,,B,] | [E,B,][E,B,] [E,B,]2 | [E,B,][E,B,] [B,,B,][B,,B,] | %3
 [F,CF][F,DF] [F,A,F]2 | [B,,B,][B,,B,] [B,,B,][B,,B,] | [E,B,E][G,B,E] [B,D]2 | %6
 [B,,B,][B,,B,] [F,CE][G,B,D] | [F,B,F][F,A,E] [B,,B,]2 | [B,,B,]2 [B,,B,][B,,B,] | %9
 [B,,B,] .[B,,B,]3 | [E,B,E]2 [E,B,E][E,G,E] | [B,,F,] .[B,,B,]3 | [B,,B,]2 [B,,B,][B,,B,] | %13
[M:5/8] [E,B,] [E,B,]3 [D,B,] |[M:2/4] [F,B,F]2 [F,B,F][F,A,E] | [B,,B,]4 |] %16

